img/benefits/group-2.svg

<svg width="31" height="30" viewBox="0 0 31 30" fill="none" xmlns="http://www.w3.org/2000/svg">
<path d="M15 30C17.0743 30 19.0144 29.6104 20.8204 28.8313C22.6264 28.0521 24.2208 26.9737 25.6037 25.596C26.9866 24.2183 28.0676 22.6238 28.8467 20.8127C29.6259 19.0015 30.0155 17.064 30.0155 15C30.0155 12.936 29.6259 10.9985 28.8467 9.18731C28.0676 7.37616 26.9866 5.78173 25.6037 4.40402C24.2208 3.02632 22.6264 1.94788 20.8204 1.16873C19.0144 0.389577 17.0743 0 15 0C12.936 0 10.9985 0.389577 9.18731 1.16873C7.37616 1.94788 5.78431 3.02632 4.41176 4.40402C3.03922 5.78173 1.96078 7.37616 1.17647 9.18731C0.392157 10.9985 0 12.936 0 15C0 17.064 0.389577 19.0015 1.16873 20.8127C1.94788 22.6238 3.02632 24.2183 4.40402 25.596C5.78173 26.9737 7.37616 28.0521 9.18731 28.8313C10.9985 29.6104 12.936 30 15 30Z" fill="#0037FC"/>
<path d="M5.46484 14.2571C5.46484 16.7442 6.35752 18.8856 8.14286 20.6813C8.22542 20.7638 8.32346 20.8077 8.43698 20.8128C8.5505 20.818 8.64338 20.769 8.71562 20.6658C8.87042 20.48 8.85494 20.2943 8.66918 20.1085C7.04895 18.5089 6.23884 16.5585 6.23884 14.2571C6.23884 11.9455 7.04895 10.0002 8.66918 8.4212C8.75174 8.33864 8.79818 8.24319 8.8085 8.13483C8.81882 8.02647 8.78786 7.93101 8.71562 7.84845C8.6537 7.76589 8.5634 7.72461 8.44472 7.72461C8.32604 7.72461 8.22542 7.76589 8.14286 7.84845C7.27599 8.71532 6.61293 9.70087 6.1537 10.8051C5.69446 11.9093 5.46484 13.06 5.46484 14.2571Z" fill="white"/>
<path d="M9.30371 14.2573C9.30371 15.6917 9.79907 16.925 10.7898 17.957C10.8723 18.0395 10.973 18.0782 11.0916 18.0731C11.2103 18.0679 11.3058 18.024 11.378 17.9415C11.4606 17.8486 11.4941 17.748 11.4786 17.6396C11.4632 17.5313 11.3987 17.4306 11.2851 17.3378C10.4802 16.5844 10.0777 15.5576 10.0777 14.2573C10.0777 13.6897 10.1809 13.1479 10.3873 12.6319C10.5937 12.1159 10.9085 11.6205 11.3316 11.1458C11.4038 11.0839 11.4477 10.9962 11.4632 10.8827C11.4786 10.7691 11.4503 10.6763 11.378 10.604C11.2955 10.5008 11.1974 10.4492 11.0839 10.4492C10.9704 10.4492 10.8723 10.4957 10.7898 10.5885C9.79907 11.5896 9.30371 12.8125 9.30371 14.2573Z" fill="white"/>
<path d="M13.6689 14.2572C13.6689 14.5668 13.7567 14.8351 13.9321 15.0621C14.1075 15.2892 14.3346 15.444 14.6132 15.5265V25.2015C14.6132 25.315 14.6493 25.4104 14.7216 25.4878C14.7938 25.5652 14.8867 25.6039 15.0002 25.6039C15.1241 25.6039 15.2195 25.5652 15.2866 25.4878C15.3537 25.4104 15.3872 25.315 15.3872 25.2015V15.5265C15.6658 15.444 15.8929 15.2892 16.0683 15.0621C16.2438 14.8351 16.3315 14.5668 16.3315 14.2572C16.3315 13.8857 16.2051 13.5735 15.9522 13.3207C15.6994 13.0678 15.3821 12.9414 15.0002 12.9414C14.6287 12.9414 14.3139 13.0678 14.0559 13.3207C13.7979 13.5735 13.6689 13.8857 13.6689 14.2572Z" fill="white"/>
<path d="M19.9383 14.2573C19.9383 14.9074 19.8351 15.4905 19.6287 16.0065C19.4223 16.5225 19.123 16.9662 18.7309 17.3378C18.6173 17.4306 18.5503 17.5313 18.5296 17.6396C18.509 17.748 18.5399 17.8486 18.6225 17.9415C18.7051 18.024 18.8057 18.0679 18.9244 18.0731C19.043 18.0782 19.1437 18.0395 19.2262 17.957C20.2169 16.925 20.7123 15.6917 20.7123 14.2573C20.7123 12.8125 20.2169 11.5896 19.2262 10.5885C19.1437 10.4957 19.0456 10.4492 18.9321 10.4492C18.8186 10.4492 18.7154 10.5008 18.6225 10.604C18.5503 10.6763 18.5245 10.7691 18.5451 10.8827C18.5657 10.9962 18.6122 11.0839 18.6844 11.1458C19.0972 11.6205 19.4094 12.1159 19.621 12.6319C19.8325 13.1479 19.9383 13.6897 19.9383 14.2573Z" fill="white"/>
<path d="M23.7767 14.2571C23.7767 16.5585 22.9614 18.5089 21.3308 20.1085C21.1554 20.2943 21.1399 20.48 21.2844 20.6658C21.367 20.769 21.465 20.818 21.5785 20.8128C21.692 20.8077 21.7901 20.7638 21.8726 20.6813C23.658 18.8856 24.5507 16.7442 24.5507 14.2571C24.5507 13.06 24.321 11.9093 23.8618 10.8051C23.4026 9.70087 22.7395 8.71532 21.8726 7.84845C21.7901 7.76589 21.6895 7.72461 21.5708 7.72461C21.4521 7.72461 21.3566 7.76589 21.2844 7.84845C21.2225 7.93101 21.1967 8.02647 21.207 8.13483C21.2173 8.24319 21.2586 8.33864 21.3308 8.4212C22.9614 10.0002 23.7767 11.9455 23.7767 14.2571Z" fill="white"/>
</svg>

<svg width="31" height="30" fill="none" xmlns="http://www.w3.org/2000/svg"><path d="M15 30c2.074 0 4.014-.39 5.82-1.169s3.4-1.857 4.784-3.235a15.123 15.123 0 003.243-4.783c.779-1.811 1.168-3.749 1.168-5.813 0-2.064-.39-4.002-1.168-5.813a15.122 15.122 0 00-3.243-4.783 15.305 15.305 0 00-4.784-3.235C19.014.389 17.074 0 15 0c-2.064 0-4.002.39-5.813 1.169a15.096 15.096 0 00-4.775 3.235 15.362 15.362 0 00-3.236 4.783C.392 11 0 12.936 0 15c0 2.064.39 4.002 1.169 5.813a15.188 15.188 0 003.235 4.783 15.188 15.188 0 004.783 3.235C11 29.611 12.936 30 15 30z" fill="#0037FC"/><path d="M5.465 14.257c0 2.487.893 4.629 2.678 6.424.082.083.18.127.294.132.114.005.206-.044.279-.147.154-.186.139-.372-.047-.558-1.62-1.6-2.43-3.55-2.43-5.85 0-2.313.81-4.258 2.43-5.837a.458.458 0 00.14-.286.366.366 0 00-.093-.287.318.318 0 00-.271-.123.41.41 0 00-.302.123 9.08 9.08 0 00-1.99 2.957 8.903 8.903 0 00-.688 3.452zm3.839 0c0 1.435.495 2.668 1.486 3.7a.386.386 0 00.302.116.386.386 0 00.286-.131.362.362 0 00.1-.302.485.485 0 00-.193-.302c-.805-.754-1.207-1.78-1.207-3.08 0-.568.103-1.11.31-1.626a5.072 5.072 0 01.944-1.486.404.404 0 00.131-.263.313.313 0 00-.085-.279.367.367 0 00-.294-.155.381.381 0 00-.294.14c-.99 1-1.486 2.223-1.486 3.668zm4.365 0c0 .31.088.578.263.805.175.227.403.382.681.465v9.675c0 .113.036.208.109.286a.364.364 0 00.278.116.36.36 0 00.287-.116.422.422 0 00.1-.287v-9.675c.279-.082.506-.237.681-.464.176-.227.263-.495.263-.805a1.27 1.27 0 00-.379-.936 1.29 1.29 0 00-.952-.38c-.371 0-.686.127-.944.38a1.26 1.26 0 00-.387.936zm6.269 0c0 .65-.103 1.234-.31 1.75a3.69 3.69 0 01-.897 1.33.524.524 0 00-.201.303.342.342 0 00.092.302.44.44 0 00.302.131.386.386 0 00.302-.116c.99-1.032 1.486-2.265 1.486-3.7 0-1.444-.495-2.667-1.486-3.668a.381.381 0 00-.294-.14.411.411 0 00-.31.155c-.072.072-.098.165-.077.279.02.113.067.2.14.263.412.474.724.97.936 1.486.212.516.317 1.058.317 1.625zm3.839 0c0 2.301-.816 4.252-2.446 5.851-.176.186-.191.372-.047.558.083.103.181.152.294.147a.43.43 0 00.295-.132c1.785-1.795 2.678-3.937 2.678-6.424a8.89 8.89 0 00-.69-3.452 9.08 9.08 0 00-1.988-2.957.41.41 0 00-.302-.123.362.362 0 00-.287.123.398.398 0 00-.077.287c.01.108.052.204.124.286 1.63 1.58 2.446 3.524 2.446 5.836z" fill="#fff"/></svg>
